X:6/9
L:K
FD Bc BG/F/|GB Bc|AB c>B|cA B>c|ef g>e|fc AB|1 Bd ce:|2 f2 a>|ec A G2||
<end>
<start>
X


*****************************


15000 0 2.4979756 

<stark>
T:Jaim ITye
T:Wog bo
R:polka
<s:polt poveen Ocele1s: The Moell's
R:pill
M:6/4
L:1/8
K:D
DDD EA^G|


*****************************


15100 0 1.248807 

<stars 27
M:2/2
W:51
K:Am
FE|G>B dA|BA GE|FG GB|dB/B/ BA|AG AF|AG FA|BA Bd|ed cB|Ae c/e/f|d2 d2|ea/e/ fe|


*****************************


15200 0 0.96315354 

<star>ost fred MBcwin's & in 2oswaim Cloudwiersme
Z:ih:al marthon Mins FBrcher 19
R:polka
H:Mhest of Lolk


*****************************


15300 0 1.2519282 

<start>
